icons/backbonejs/backbonejs-original.svg

<svg xmlns="http://www.w3.org/2000/svg" viewBox="0 0 128 128"><path fill="#002A41" d="M14.646 2.701v66.305l49.353 28.132v-19.123l-33.017-18.82v-29.562l33.017 18.821v-17.62l-49.353-28.133z"/><path fill="#0071B5" d="M113.353 2.701v66.305l-49.353 28.132v-19.123l33.016-18.82v-29.562l-33.016 18.821v-17.62l49.353-28.133z"/><path fill="#0071B5" d="M14.646 125.303v-66.305l49.353-28.134v19.125l-33.017 18.819v28.059l33.017-18.82v19.124l-49.353 28.133z"/><path fill="#002A41" d="M113.353 125.303v-66.305l-49.353-28.134v19.125l33.016 18.819v28.059l-33.016-18.82v19.124l49.353 28.133z"/></svg>

<svg xmlns="http://www.w3.org/2000/svg" viewBox="0 0 128 128"><path fill="#002A41" d="M14.646 2.701v66.305l49.353 28.132V78.015l-33.017-18.82V29.633l33.017 18.821v-17.62L14.646 2.701z"/><path fill="#0071B5" d="M113.353 2.701v66.305L64 97.138V78.015l33.016-18.82V29.633L64 48.454v-17.62l49.353-28.133zM14.646 125.303V58.998l49.353-28.134v19.125L30.982 68.808v28.059l33.017-18.82v19.124l-49.353 28.133z"/><path fill="#002A41" d="M113.353 125.303V58.998L64 30.864v19.125l33.016 18.819v28.059L64 78.047v19.124l49.353 28.133z"/></svg>
